X:20
T:20.  It's About Time
C:c 1999 Harry Bolick
R:Waltz
O:United States
A:Hastings On Hudson, New York
M:3/4
L:1/8
Q:300
K:F
|: "Dm" D3 E FG | A4 GA | d2c2A2  |  (G4G) G |
 dcd2 e2  | fef2 g2 |  a2  ag fe  |[1  d3 c AF :| [2  d6  ||
K:D
|: "D" a2ag fg | a3g fg | a2f2e2 | d3 c BA |
 "G"  G2B2d2 |  g4 gg | g2 f2 d2 | "A" e4 fg|
 "D" a2ag fg | a2ag fg | a2f2e2 | d3 c BA|
"G"  G2B2d2 | g2b2 g2 | "A" a2 ag  fe | "D"d6 :|
